src/icons/svg/payment.svg

<?xml version="1.0" encoding="UTF-8"?>
<svg width="15px" height="16px" viewBox="0 0 15 16" version="1.1" xmlns="http://www.w3.org/2000/svg" xmlns:xlink="http://www.w3.org/1999/xlink">
    <!-- Generator: Sketch 63 (92445) - https://sketch.com -->
    <title>图标-支付记录</title>
    <desc>Created with Sketch.</desc>
    <g id="图标页面" stroke="none" stroke-width="1" fill="none" fill-rule="evenodd">
        <g id="操作栏图标" transform="translate(-942.000000, -225.000000)" fill="#4E9BFF" fill-rule="nonzero">
            <g id="图标-支付记录" transform="translate(942.000000, 225.000000)">
                <g id="编组">
                    <polygon id="路径" points="9.11695906 3 7.64631579 6.25978479 7.35274853 6.25978479 5.88210526 3 5 3 6.47087719 6.25978479 5 6.25978479 5 7.14804305 7.05847953 7.14804305 7.05847953 8.63131134 5 8.63131134 5 9.51862363 7.05847953 9.51862363 7.05847953 11 7.94152046 11 7.94152046 9.51862363 10 9.51862363 10 8.63036537 7.94152046 8.63036537 7.94152046 7.14733357 10 7.14733357 10 6.25978479 8.52818713 6.25978479 9.99906432 3.00047298"></polygon>
                    <path d="M7.5,15.9999685 C7.3542838,16.0010139 7.21078938,15.9672192 7.08373904,15.9019006 C7.00827652,15.8613499 5.21178189,14.8925886 3.43816942,13.4133783 C2.43646542,12.5789691 1.63997078,11.7454511 1.07108081,10.9357734 C0.360029207,9.92712981 0,8.95101589 0,8.03461403 L0,1.54783461 C0,1.30764954 0.151898742,1.03047865 0.361002926,0.888773893 C0.454479075,0.827279389 0.838120736,0.612048609 1.87025317,0.407735323 C3.2375852,0.137248621 5.13072055,0 7.5,0 C9.86927944,0 11.7636319,0.137248621 13.1304771,0.407958135 C14.1621227,0.612271406 14.5455209,0.827502186 14.6382668,0.888551081 C14.8481013,1.03070143 15,1.30787233 15,1.54783461 L15,8.03461403 C15,8.95101589 14.6399708,9.92712981 13.9289192,10.9357734 C13.3600292,11.7454511 12.563778,12.5789691 11.5628043,13.4129327 C9.78821811,14.893257 7.99269718,15.8613499 7.91723466,15.9019006 C7.78990154,15.9673795 7.64604698,16.00118 7.5,15.9999685 L7.5,15.9999685 Z M7.5035238,15.3065625 C7.51237903,15.3065625 7.52120142,15.3055349 7.52983484,15.303666 C7.85026564,15.1205193 14,11.5665378 14,8.03461403 L14,1.54783461 C13.9922188,1.5100659 13.9744334,1.47479591 13.9483176,1.44534375 C13.8996892,1.41749298 12.579674,0.693372871 7.50023492,0.693372871 C6.02517256,0.693372871 3.93415012,0.757986666 2.34867542,1.06523639 C1.38127507,1.25283921 1.05802524,1.44400691 1.04698399,1.45024549 C1.02345428,1.47873746 1.00735561,1.51209921 1,1.5476118 L1,8.03461403 C1,11.5569571 7.11402653,15.1004667 7.46640644,15.3014379 L7.5035238,15.3065625 Z" id="形状"></path>
                </g>
            </g>
        </g>
    </g>
</svg>

<svg width="15" height="16"><path d="M9.117 3l-1.47 3.26h-.294L5.883 3H5l1.47 3.26H5v.888h2.058v1.483H5v.888h2.058V11h.884V9.519H10V8.63H7.942V7.147H10V6.26H8.528L10 3z"/><path d="M7.5 16a.898.898 0 01-.416-.098 24.212 24.212 0 01-3.646-2.489c-1.002-.834-1.798-1.668-2.367-2.477C.36 9.927 0 8.95 0 8.035V1.548c0-.24.152-.518.361-.66.093-.06.477-.276 1.51-.48C3.237.138 5.13 0 7.5 0c2.37 0 4.264.137 5.63.408 1.032.204 1.416.42 1.508.48a.86.86 0 01.362.66v6.487c0 .916-.36 1.892-1.071 2.9-.569.81-1.365 1.644-2.366 2.478a24.19 24.19 0 01-3.646 2.489A.898.898 0 017.5 16zm.004-.693a.124.124 0 00.026-.003c.32-.183 6.47-3.737 6.47-7.27V1.549a.222.222 0 00-.052-.103C13.9 1.417 12.58.693 7.5.693c-1.475 0-3.566.065-5.151.372-.968.188-1.291.379-1.302.385A.224.224 0 001 1.548v6.487C1 11.557 7.114 15.1 7.466 15.3l.038.006z"/></svg>
